X:1
T:Title
%%score ( 1 2 )
L:1/8
Q:1/4=120
M:4/4
K:Db
V:1 bass nm="Part_1"
V:2 bass 
V:1
 z4 z2 z | D,,E,, z2 .D,>!wedge!E, x2 | z2 B,,/=B,,/z/C,/ z4 | D,,E,, z2 .D,>E, z2 | %4
 C,/D,/C,/G,,/ z2 z B,,3/2D,3/2 | D,,E,, z2 .D,>E, z2 | z2 B,,/=B,,3/4C,/ z4 x/4 | %7
 D,,E,, z2 .D,>E, z2 | C,/D,/C,/G,,/ z2 z B,,2[K:bass-8] G,/A, | D,,E,, z2 D,/E,/G,/E,/ z2 | %10
 z2 B,/(=B,3/4C/) z4 x/4 | D,E, z2 .D>E z2 | C,>F, z2 z B,3/2D3/2 | D,E, z2 .D>E z2 | %14
 z2 B,/(=B,3/4C/) z4 x/4 | D,E, z2 .D>E z2 | C>F, z2 z B,3/2D3/2 | D,E, z2 .D>E z2 | %18
 z2 B,/=B,3/4C/ z4 x/4 | D,E, z2 .D>E z2 | C/D/C/G,/ z2 z B, D/G/A | D,E, z2 .D>E z2 | %22
 z2 B,/(=B,3/4C/) z4 x/4 | D,E, z2 .D>E z2 | C/D/C/G,/ z2 z B,3/2D3/2 | D,E, z2 G/F3/4E3/2 x5/4 | %26
 z2 z3/2 D/ C/ z/ B,3/2 x3/2 | D,E, z2 G/F3/4E3/2 x5/4 | z4 z A,3 | D,E, z2 G/F<E x3/2 | %30
 z2 z3/2 D/ (C3/4B,3/2) x7/4 | D,E, z2 E2 G/F3/4 x3/4 | z4 z D3 | G,3/2B,,- B,,2 F,2 A,/=A,/ x/ | %34
 .B,3/2 z2 E(E,E,)=A, x/ | =G,3 A,- A,4 | G<A B,2 C2 D2 | D,E, z2 .D>E z2 | %38
 z2 B,/=B,/z/C/ z2 z D/ x/ | D,E, z2 D/E/G/E/ z2 | !^!C/D/C/G,/ z2 z B,3/2D3/2 | D,E, z2 .D>E z2 | %42
 z2 B,/=B,3/4C/ z4 x/4 | D,E, z2 .D>E z2 | C>F, z2 z B,3/2D3/2 | D,E, z2 E2 G/F3/4E3/2 | %46
 z2 z3/2 D/ C3/4B,3/2 x7/4 | D,E, z2 !>!G/F/ z/ E3/2 x | z4 B,/ A,3 x/ | D,E, z2 G/(F3/4E3/2) | %50
 z2 z3/2 D/ (C3/4B,3/2) x7/4 | D,E, z2 z G/(F3/4E3/2) x/4 | z4 z D3 | G,3/2B,,- B,,2 F,2 A/=A/ x/ | %54
 B/A/F/D/ B,D EE,E=A, | =G,>G, z A, A,/E,/B,,- B,,G,/G,/ | A,2 B,2 C2 !wedge!D x | %57
 d2 B,,2 !wedge!C/ A,=A, x3/2 | A<B- B/D E/ F, G,B, x | =G,B,/E/ z A/B/ =B/_B/A/E/ =B,/_B,/A,/B,/ | %60
 A,2 B,2 C2 D/A,/D, | G,>=E,- E,<_E,- E,4 | E3 =D- DCCF, | .F,2 z2 z (=G,G,)A, | %64
 A,2 z2 B,/F/B =A,/=E/=A | A,/B,/A,/D,/- D,2 =G,=D/=G/ GB | c2 GC z E Fc/f/- f2 | %67
 B,/CE/- E[B,B,] B E,2 x | A,2 B,2 C2 D2- | D8 |[K:A][M:2/4] .C.E FMB,3/2 | %71
[M:2/4] !wedge![CEG]4 .E,2 z ^D/E/ =C/(^C3/4 A,)F, | MB,3/2E, z2 .C.E F<D, | .C,B,_B,A,- A,2 =B,2 | %74
 E/F/A/MB/- B/A/F/E/ .C.E FMB,3/2 | [CEG]4 .E,2 z ^D/E/ =C/^C3/4 A,F, | MB,>E, z2 .C.E F<D, | %77
 C,2 z A,3 B,2 | E/F/A/MB/- B/A/F/E/ .C.E F<MB, | [CEG]4 .E,2 z ^D/E3/4 =C/(^C3/4 A,)F, | %80
 MB,>E, z2 .C.E F<D, | .C,B,_B,A,- A,2 =B,2 | E/F/A/MB/- B/A/F/E/ .C.E F<MB, | %83
 !wedge!!^!G2 .E,2 z ^D/E3/4 =C/^C/ A,F, | MB,3/2E, z2 .C.E F<D, | .C,B,_B,A,- A,C/F,/ =B,2 | %86
 E/F/A/MB/- B/A/F/E/ .C.E FMB,3/2 | [CEG]4 .E,2 z ^D/E3/4 =C/^C3/4 A,F, | MB,3/2E, z2 .C.E F<D, | %89
 .C,3/2 G,A,- A,C/F,/ B,2 | E/F/A/MB/- B/A/F/E/ .C.E FMB,3/2 | %91
 !wedge![CEG]4 .E,2 z ^D/E3/4 =C/^C/ z/ A,F, | MB,3/2E, z2 .C.E F<D, | .C,B,E,A,- A,2 B,2 | %94
 E/F/A/MB/- B/A/F/E/ .C.E FMB,3/2 | [=CE=G]4 .E,2 z ^D/E3/4 C/^C/ A,=F, | MB,>E, z2 .=C.E =F<D, | %97
 =C,E,/ B,A,- A,2 B,2 | E/=F/A/MB/- B/A/F/E/ .=C.E FMB,3/2 | %99
[M:2/4] !wedge![=CE=G]4 .E,2 z ^D/E/ C/^C/ z/ A,=F, | MB,3/2E, z2 .=C.E =F<D, | %101
 .=C,B,_B,A,- A, _B,,2 | E/=F/A/MB/- B/A/F/E/ .=C.E FMB,3/2 |!p! .E,2 z ^D/E/ =C/^C/ z/ A,F, | %104
 MB,>E, z2 .C.E F<D, | .C,=G,^G,A,- (A,C) B,2 | E/F/A/MB/- B/A/F/E/ .C.E FMB,3/2 | %107
 !wedge!.E,2 z ^D/E3/4 =C/(^C3/4 A,)F, | B,/f/ g<d .C.E F/(B,/C/B,/) | .C,B,_B,A,- A,C/F,/ _B,,2 | %110
 E/F/A/MB/- B/A/F/E/ .C.E FMB,3/2 | !wedge!G2 .E,2 z ^D/E3/4 =C/(^C3/4 A,)F, | %112
 MB,3/2E, z2 .C.E F<D, | .C,=G,^G,A, C=C B,2 | E/F/A/MB/- B/A/ F/E/ .C.E FMB,3/2 | %115
 !wedge![CEG]4 .E,2 z ^D/E/ z/ =C/(^C3/4 A,)F, | MB,3/2E, z2 .C.E F<D, | .C,B,_B,A,- A,C, _B,,2 | %118
 E/F/A/MB/- B/A/F/E/ .C.E F<MB, | [CEG]4 .E,2 z ^D/E/ z/ =C/^C3/4 A,F, | MB,3/2E, z2 .C.E F<D, | %121
 .C,B,_B,A,- A,C,/D,/ ^D,2 | E/F/A/MB/- B/A/F/E/ .C.E FMB,3/2 | %123
 [CEG]4 .E,2 z ^D/E3/4 =C/(^C3/4 A,)F, | MB,>E, z2 .C.E F<D, | .C,B,_B,A,- A, _B,,2 | %126
 E/F/A/MB/- B/A/F/E/ .C.E FMB,3/2 | !wedge!G2 .E,2 z ^D/E/ =C/^C/ A,F, | MB,3/2E, z2 .C.E F<D, | %129
 .C,=G,^G,A,- (A,C) B,2 | E/F/A/MB/- B/A/F/E/ .C.E F<MB, | [CEG]4 .E,2 z ^D/E3/4 =C/^C/ A,F, | %132
 MB,3/2E, z2 .C.E F<D, | .C,B,_B,A, F,=C, _B,,2 | E/F/A/MB/- B/A/F/E/ .C.E FMB,3/2 | %135
 [CEG]4 .E,2 z ^D/(E3/4 =C/)^C3/4 A,F, | MB,3/2E, .C.E F<D, | .C,=G,^G,A,- A,=C B,2 | %138
 E/F/A/MB/- B/A/F/E/ .C.E FMB,3/2 | !^![=CE=G]4 .E,2 z ^D/E3/4 C/(^C3/4 A,)=F, | %140
 MB,>E, z2 .=C.E =F<D, | .=C,B,_B,A,- A,=F, _B,,2 | E/=F/A/MB/- B/A/F/E/ .=C.E FMB,3/2 | %143
 !wedge![=CE=G]4 .E,2 z ^D/E3/4 C/(^C3/4 A,)=F, | %144
 z =F,/A,3/4 =C/^C/ z/ E/^D/ z (B/4=c/4B/4A/4)=F/E/ | z6 z ^A,- | A,(B,B,)=C- C3 !>!=C,/ | %147
 !^![=CE=G]4 z4 z3 !>!=C,/ | z4 z3 E,/!>!E,/- | E,_B,/!>(!B,/!>)! B,=C,/!>!C,/- C,3 !>!_B,,/ | %150
 z4 z3 D,/!>!D,/- | D,E,/!>!E,/- E,F,/!>!F,/- F,3 !>!F, | z2 !>!F, z z !>!F,/!>!F,/ z2 |] %153
V:2
 x7 | x8 | x8 | x8 | x8 | x8 | x8 | x8 | x7[K:bass-8] x3/2 | x8 | x8 | x8 | x8 | x8 | x8 | x8 | %16
 x8 | x8 | x8 | x8 | x8 | x8 | x8 | x8 | x8 | x8 | x8 | x8 | x8 | x8 | x8 | x8 | x8 | x8 | x8 | %35
 x8 | x8 | x8 | x8 | x8 | x8 | x8 | x8 | x8 | x8 | x35/4 | x8 | x8 | x8 | x27/4 | x8 | x8 | x8 | %53
 x8 | x8 | x8 | x8 | x8 | x8 | x8 | x8 | x8 | x8 | x8 | x8 | x8 | x10 | x8 | x8 | x8 | %70
[K:A][M:2/4] x9/2 |[M:2/4] [CEG]4 x29/4 | x17/2 | x8 | x17/2 | [CEG]4 x29/4 | x8 | x8 | x8 | %79
 [CEG]4 x15/2 | x8 | x8 | x8 | x37/4 | x17/2 | x8 | x17/2 | [CEG]4 x15/2 | x17/2 | x15/2 | x17/2 | %91
 [CEG]4 x31/4 | x17/2 | x8 | x17/2 | [=CE=G]4 x29/4 | x8 | x15/2 | x17/2 |[M:2/4] [=CE=G]4 x15/2 | %100
 x17/2 | x7 | x17/2 | x15/2 | x8 | x8 | x17/2 | x15/2 | x7 | x8 | x17/2 | x19/2 | x17/2 | x8 | %114
 x17/2 | [CEG]4 x31/4 | x17/2 | x8 | x8 | [CEG]4 x31/4 | x17/2 | x8 | x17/2 | [CEG]4 x15/2 | x8 | %125
 x7 | x17/2 | x9 | x17/2 | x8 | x8 | [CEG]4 x29/4 | x17/2 | x8 | x17/2 | [CEG]4 x15/2 | x13/2 | %137
 x8 | x17/2 | [=CE=G]4 x15/2 | x8 | x8 | x17/2 | [=CE=G]4 x15/2 | x31/4 | x8 | x15/2 | %147
 [=CE=G]4 x15/2 | x8 | x15/2 | x8 | x8 | x8 |] %153

